file/cnnplus.svg

<svg clip-rule="evenodd" fill-rule="evenodd" stroke-linejoin="round" stroke-miterlimit="1.41421" viewBox="0 0 560 400" xmlns="http://www.w3.org/2000/svg"><g fill-rule="nonzero" transform="matrix(.0998613 0 0 -.0998613 98.5021 260.915)"><path d="m2420 610v-600h1200v1200h-600-600zm750 330v-180h360v-150-150h-180-180v-180-180h-150-150v360h-180-180v300h360v360h300z" fill="#999"/><g fill="#f00"><path d="m420 1140c-172-44-290-140-357-290-14-30-30-66-36-79-7-15-12-75-12-155 1-105 4-137 18-161 9-16 17-35 17-40 0-12 27-65 55-110 61-98 229-206 350-225 80-13 470-13 517 0 47 14 102 77 117 135 6 24 11 106 11 182 0 116 2 135 14 123 7-8 57-89 111-180s112-182 128-203c40-51 93-77 161-77 63 0 101 12 134 43 51 47 56 71 62 262 5 153 7 176 18 155 7-14 21-38 32-55 11-16 24-39 30-50s19-33 30-50c11-16 24-39 30-50 14-25 25-44 78-127 29-45 59-77 92-98 47-30 55-32 124-28 84 4 111 21 147 90 18 35 19 65 19 523v485h-65-65v-455c0-442-1-456-20-475-45-45-68-23-206 200-59 96-114 186-121 200-8 14-46 75-83 135-38 61-83 134-100 163-30 50-60 67-75 42-3-5-6-167-5-358 0-337 0-350-20-375-21-27-49-29-77-5-8 7-35 46-60 88-24 41-69 113-99 160s-59 94-65 105c-5 11-23 40-39 65s-44 70-62 100-49 81-70 112-38 61-38 65c-1 16-39 53-54 53-33 0-36-36-36-382 0-189-4-348-8-354-18-28-56-34-214-34-90 0-194 5-233 10-176 26-290 134-330 315-21 93-9 178 37 272 71 145 206 213 426 213h82v141l-112-2c-65-1-141-10-178-19z"/><path d="m895 1145c-44-19-81-63-99-118-13-39-16-99-16-342v-295l-26-6c-52-13-247 2-294 23-153 68-183 270-56 381 47 41 91 53 206 58l95 3 3 72 3 71-123-4c-98-4-135-9-183-28-75-29-151-103-190-185-72-152-23-361 108-457 91-66 142-76 384-78 191-1 202 0 212 19 7 13 11 143 11 369 0 325 1 350 18 365 20 18 49 22 70 9 11-7 86-123 105-162 4-8 39-64 77-125 38-60 97-155 131-210 157-258 179-286 199-255 6 9 10 162 10 372v358l25 16c36 24 69 11 97-36 28-50 196-322 253-410 23-36 45-72 48-80 4-8 20-34 35-57s45-71 67-108c30-49 45-65 60-63 20 3 20 12 23 461l2 457h-70-70v-247c0-273 1-270-57-163-83 153-196 331-225 355-119 101-281 57-325-88-7-24-11-100-10-198 1-87 1-159 1-159-2 0-97 165-116 201-8 13-39 68-71 121-59 99-98 141-154 165-40 16-118 16-158-2z"/></g></g></svg>

<?xml version="1.0" encoding="UTF-8" standalone="no"?>
<!DOCTYPE svg PUBLIC "-//W3C//DTD SVG 1.1//EN" "http://www.w3.org/Graphics/SVG/1.1/DTD/svg11.dtd">
<svg width="100%" height="100%" viewBox="0 0 560 400" version="1.1" xmlns="http://www.w3.org/2000/svg" xmlns:xlink="http://www.w3.org/1999/xlink" xml:space="preserve" xmlns:serif="http://www.serif.com/" style="fill-rule:evenodd;clip-rule:evenodd;stroke-linejoin:round;stroke-miterlimit:1.41421;">
    <g transform="matrix(0.0998613,0,0,-0.0998613,98.5021,260.915)">
        <path id="path8" d="M2420,610L2420,10L3620,10L3620,1210L3020,1210L2420,1210L2420,610ZM3170,940L3170,760L3530,760L3530,610L3530,460L3350,460L3170,460L3170,280L3170,100L3020,100L2870,100L2870,460L2690,460L2510,460L2510,760L2870,760L2870,1120L3170,1120L3170,940Z" style="fill:rgb(153,153,153);fill-rule:nonzero;"/>
        <path id="path10" d="M420,1140C248,1096 130,1000 63,850C49,820 33,784 27,771C20,756 15,696 15,616C16,511 19,479 33,455C42,439 50,420 50,415C50,403 77,350 105,305C166,207 334,99 455,80C535,67 925,67 972,80C1019,94 1074,157 1089,215C1095,239 1100,321 1100,397C1100,513 1102,532 1114,520C1121,512 1171,431 1225,340C1279,249 1337,158 1353,137C1393,86 1446,60 1514,60C1577,60 1615,72 1648,103C1699,150 1704,174 1710,365C1715,518 1717,541 1728,520C1735,506 1749,482 1760,465C1771,449 1784,426 1790,415C1796,404 1809,382 1820,365C1831,349 1844,326 1850,315C1864,290 1875,271 1928,188C1957,143 1987,111 2020,90C2067,60 2075,58 2144,62C2228,66 2255,83 2291,152C2309,187 2310,217 2310,675L2310,1160L2245,1160L2180,1160L2180,705C2180,263 2179,249 2160,230C2115,185 2092,207 1954,430C1895,526 1840,616 1833,630C1825,644 1787,705 1750,765C1712,826 1667,899 1650,928C1620,978 1590,995 1575,970C1572,965 1569,803 1570,612C1570,275 1570,262 1550,237C1529,210 1501,208 1473,232C1465,239 1438,278 1413,320C1389,361 1344,433 1314,480C1284,527 1255,574 1249,585C1244,596 1226,625 1210,650C1194,675 1166,720 1148,750C1130,780 1099,831 1078,862C1057,893 1040,923 1040,927C1039,943 1001,980 986,980C953,980 950,944 950,598C950,409 946,250 942,244C924,216 886,210 728,210C638,210 534,215 495,220C319,246 205,354 165,535C144,628 156,713 202,807C273,952 408,1020 628,1020L710,1020L710,1161L598,1159C533,1158 457,1149 420,1140Z" style="fill:rgb(255,0,0);fill-rule:nonzero;"/>
        <path id="path12" d="M895,1145C851,1126 814,1082 796,1027C783,988 780,928 780,685L780,390L754,384C702,371 507,386 460,407C307,475 277,677 404,788C451,829 495,841 610,846L705,849L708,921L711,992L588,988C490,984 453,979 405,960C330,931 254,857 215,775C143,623 192,414 323,318C414,252 465,242 707,240C898,239 909,240 919,259C926,272 930,402 930,628C930,953 931,978 948,993C968,1011 997,1015 1018,1002C1029,995 1104,879 1123,840C1127,832 1162,776 1200,715C1238,655 1297,560 1331,505C1488,247 1510,219 1530,250C1536,259 1540,412 1540,622L1540,980L1565,996C1601,1020 1634,1007 1662,960C1690,910 1858,638 1915,550C1938,514 1960,478 1963,470C1967,462 1983,436 1998,413C2013,390 2043,342 2065,305C2095,256 2110,240 2125,242C2145,245 2145,254 2148,703L2150,1160L2080,1160L2010,1160L2010,913C2010,640 2011,643 1953,750C1870,903 1757,1081 1728,1105C1609,1206 1447,1162 1403,1017C1396,993 1392,917 1393,819C1394,732 1394,660 1394,660C1392,660 1297,825 1278,861C1270,874 1239,929 1207,982C1148,1081 1109,1123 1053,1147C1013,1163 935,1163 895,1145Z" style="fill:rgb(255,0,0);fill-rule:nonzero;"/>
    </g>
</svg>
